src/img/icons/video.svg

<svg height="64" viewBox="0 0 64 64" width="64" xmlns="http://www.w3.org/2000/svg"><path d="m56 7h-48a6.006 6.006 0 0 0 -6 6v38a6.006 6.006 0 0 0 6 6h48a6.006 6.006 0 0 0 6-6v-38a6.006 6.006 0 0 0 -6-6zm-14.47 25.848-16 10a1 1 0 0 1 -1.53-.848v-20a1 1 0 0 1 1.53-.848l16 10a1 1 0 0 1 0 1.7z" fill="#13328c"/></svg>

<svg xmlns="http://www.w3.org/2000/svg" xmlns:xlink="http://www.w3.org/1999/xlink" x="0px" y="0px" width="64px" height="64px" viewBox="0 0 64 64"><g transform="translate(0, 0)"><path d="M56,7H8a6.006,6.006,0,0,0-6,6V51a6.006,6.006,0,0,0,6,6H56a6.006,6.006,0,0,0,6-6V13A6.006,6.006,0,0,0,56,7ZM41.53,32.848l-16,10A1,1,0,0,1,24,42V22a1,1,0,0,1,1.53-.848l16,10a1,1,0,0,1,0,1.7Z" fill="#13328C"></path></g></svg>
